X: 23167
T: Le Petit Bal De La Marine
R: waltz
M: 3/4
K: Gmajor
|:"n.c."A ce ac'|"Am"b3a ec|B3ABc|(3BcB A4-|AA ce ac'|b3a ec|B3A "(A)"Bc|"Dm"e2 d4-|
dd ef ed|fd ef ed|ad ef ed|"Am"ec de dc|ac de dc|1 "H"B6-|B2 c3 B|"E"B6-|BA ce ac':|
[2 "H"B6|"E"z2 c2 (3BcB|"Am"A6-|A2 G2 A2|:"G"(3BdB A2 G2|"D"F2 E2 DB,|"G"D6|"D"z2 G2 A2|
"G"(3BdB A2 G2|"(D)"F2 E2 DB,|"Am"C6-|C2 cB cd|"H"c4 B2|A2 BA Bc|"Em"B4 A2|"A"G2 G2 A2|
"C"B2 A2 G2|"D"F2 E2 F2|1 "G"G2 DG Bd|.g2 G2 A2:|2 "G"G2 B2 d2|gA ce ac'||

